packages/admin/admin-icons/icons/image.svg

<svg xmlns="http://www.w3.org/2000/svg" width="16" height="16" viewBox="0 0 16 16"><path fill="#242424" fill-rule="evenodd" d="M15.5,2 C15.7761424,2 16,2.22385763 16,2.5 L16,13.5 C16,13.7761424 15.7761424,14 15.5,14 L0.5,14 C0.223857625,14 3.38176876e-17,13.7761424 0,13.5 L0,2.5 C-3.38176876e-17,2.22385763 0.223857625,2 0.5,2 L15.5,2 Z M15,3 L1,3 L1,13 L15,13 L15,3 Z M11.5,8 L14,12 L9,12 L11.5,8 Z M5,6 L8,12 L2,12 L5,6 Z"/></svg>

<svg width="16" height="16" fill="none" viewBox="0 0 16 16">
  <path fill="#242424" fill-rule="evenodd" d="m2 12.001 3-6 3 6H2Zm7 0 2.5-4 2.5 4H9Z M15.5 2.001a.5.5 0 0 1 .5.5v11a.5.5 0 0 1-.5.5H.5a.5.5 0 0 1-.5-.5v-11a.5.5 0 0 1 .5-.5h15Zm-.5 1H1v10h14v-10Z" clip-rule="evenodd"/>
</svg>
